X:655
T:Negro Breakdown I
B:Kerr's Merry Melodies for the Piano (n.d.)
Z:Nigel Gatherer
L:1/16
M:2/4
K:G
z2 (3DGB d2B2 | ecGe  d2B2 | z2 (3DGB d2B2 | DAFA D2d2 |
z2 (3DGB d2B2 | ecGe  d2B2 | D2DF     AdAF | GBDB G4  :|
K:C
EGcG     ecGc | A2=f2 A2f2 | EGcG     ecGc | B2d2 B2d2 |
EGcG     ecGc | A=2f2 A2f2 | Gcec     GBdB | c2e2 c4 :|]
